actions/48/rotate.svg

<?xml version="1.0" encoding="UTF-8" standalone="no"?>
<!-- Created with Inkscape (http://www.inkscape.org/) -->

<svg
   xmlns:svg="http://www.w3.org/2000/svg"
   xmlns="http://www.w3.org/2000/svg"
   xmlns:xlink="http://www.w3.org/1999/xlink"
   version="1.0"
   width="48"
   height="48"
   id="svg3349">
  <defs
     id="defs3351">
    <linearGradient
       id="linearGradient8838">
      <stop
         id="stop8840"
         style="stop-color:black;stop-opacity:1"
         offset="0" />
      <stop
         id="stop8842"
         style="stop-color:black;stop-opacity:0"
         offset="1" />
    </linearGradient>
    <linearGradient
       id="linearGradient3533">
      <stop
         id="stop3535"
         style="stop-color:#c1b0e6;stop-opacity:1"
         offset="0" />
      <stop
         id="stop3545"
         style="stop-color:#9c83d5;stop-opacity:1"
         offset="1" />
    </linearGradient>
    <linearGradient
       id="linearGradient3266">
      <stop
         id="stop3268"
         style="stop-color:#7653c6;stop-opacity:1"
         offset="0" />
      <stop
         id="stop3270"
         style="stop-color:#683fc5;stop-opacity:0"
         offset="1" />
    </linearGradient>
    <linearGradient
       id="linearGradient3276">
      <stop
         id="stop3278"
         style="stop-color:#9c83d5;stop-opacity:1"
         offset="0" />
      <stop
         id="stop3280"
         style="stop-color:#9c83d5;stop-opacity:0"
         offset="1" />
    </linearGradient>
    <linearGradient
       id="linearGradient4873">
      <stop
         id="stop4875"
         style="stop-color:white;stop-opacity:1"
         offset="0" />
      <stop
         id="stop4877"
         style="stop-color:white;stop-opacity:0"
         offset="1" />
    </linearGradient>
    <linearGradient
       id="linearGradient3319">
      <stop
         id="stop3321"
         style="stop-color:white;stop-opacity:0"
         offset="0" />
      <stop
         id="stop3323"
         style="stop-color:white;stop-opacity:0.27472529"
         offset="0.63129705" />
      <stop
         id="stop3325"
         style="stop-color:white;stop-opacity:0"
         offset="1" />
    </linearGradient>
    <radialGradient
       cx="62.625"
       cy="4.625"
       r="10.625"
       fx="62.625"
       fy="4.625"
       id="radialGradient3400"
       xlink:href="#linearGradient8838"
       gradientUnits="userSpaceOnUse"
       gradientTransform="matrix(1,0,0,0.341176,0,3.047059)" />
    <linearGradient
       x1="28.116938"
       y1="41.67448"
       x2="39.686337"
       y2="28.50532"
       id="linearGradient2417"
       xlink:href="#linearGradient3319"
       gradientUnits="userSpaceOnUse"
       gradientTransform="matrix(0.9729387,0.05855337,-0.05744379,0.9544973,2.8218154,3.9296356)" />
    <linearGradient
       x1="31.226292"
       y1="34.600941"
       x2="34.96563"
       y2="26.842505"
       id="linearGradient2423"
       xlink:href="#linearGradient3276"
       gradientUnits="userSpaceOnUse"
       gradientTransform="matrix(1.0194607,0.0613533,-0.0601903,1.0001376,2.7044827,1.0170556)" />
    <linearGradient
       x1="33.686768"
       y1="35.773647"
       x2="37.039948"
       y2="29.856804"
       id="linearGradient2425"
       xlink:href="#linearGradient3266"
       gradientUnits="userSpaceOnUse"
       gradientTransform="matrix(1.0194607,0.0613533,-0.0601903,1.0001376,2.7044827,1.0170556)" />
    <linearGradient
       x1="20.137201"
       y1="4.4757133"
       x2="16.597107"
       y2="17.94278"
       id="linearGradient2428"
       xlink:href="#linearGradient3533"
       gradientUnits="userSpaceOnUse"
       gradientTransform="matrix(0.6892164,-0.6892162,0.6761527,0.6761527,-7.5101133,28.644755)" />
    <linearGradient
       x1="32.325527"
       y1="5.0201149"
       x2="22.245434"
       y2="43.366352"
       id="linearGradient2436"
       xlink:href="#linearGradient4873"
       gradientUnits="userSpaceOnUse"
       gradientTransform="matrix(0.6892164,-0.6892162,0.6761527,0.6761527,-7.5101133,28.644755)" />
  </defs>
  <g
     id="layer1">
    <path
       d="m 73.25,4.625 a 10.625,3.625 0 1 1 -21.25,0 10.625,3.625 0 1 1 21.25,0 z"
       transform="matrix(2.0703833,0,0,2.4825129,-105.79371,27.519268)"
       id="path8836"
       style="opacity:0.4;fill:url(#radialGradient3400);fill-opacity:1;fill-rule:evenodd;stroke:none;stroke-width:0.99999988;marker:none;visibility:visible;display:inline;overflow:visible" />
    <path
       d="m 24.854767,37.634209 c -2.257232,0.131721 -5.717538,-0.686198 -7.811459,-2.780117 -3.49532,-3.49532 -4.317218,-11.773146 -0.03576,-15.923653 1.733556,-1.680532 5.850435,-3.861438 8.236871,-3.927174 l 0.02588,5.999407 12.193108,-9.617617 c 0,0 -12.193108,-10.3804058 -12.193108,-10.3804058 l -0.02808,5.6445851 c -5.259687,0.096267 -10.241614,1.8391042 -14.236648,5.7487817 -8.1271662,7.953524 -8.1141187,20.791703 -0.35002,28.733587 3.970511,4.061428 9.171384,5.997717 14.392779,5.856557"
       id="path3372"
       style="fill:url(#linearGradient2428);fill-opacity:1;stroke:#7653c6;stroke-width:1.00474763;stroke-linecap:butt;stroke-linejoin:round;stroke-miterlimit:4;stroke-opacity:1;stroke-dasharray:none" />
    <path
       d="m 24.141298,46.925838 c 9.485131,0.673693 20.758734,-5.918508 21.490103,-18.355936 l -8.736829,1.151728 c -0.490349,5.062027 -7.757644,8.631776 -12.146196,8.011866"
       id="path3453"
       style="fill:url(#linearGradient2423);fill-opacity:1;stroke:url(#linearGradient2425);stroke-width:1.00474763;stroke-linecap:butt;stroke-linejoin:miter;stroke-miterlimit:4;stroke-opacity:1;stroke-dasharray:none" />
    <path
       d="m 25.842916,38.846711 c -1.754983,0 -3.748305,0.09598 -5.421215,-0.8979 -2.962875,-0.970344 -5.418759,-3.259358 -6.478347,-6.205901 -1.766403,-4.579079 -1.142423,-10.443921 2.571039,-13.898283 2.583482,-2.450739 6.185255,-3.447861 9.673107,-3.563377 0.07491,1.078541 0.164902,3.117628 0.164902,4.563212 3.875225,-3.069107 7.046947,-5.531037 9.483214,-7.532472 C 32.868881,9 28.989698,5.5620062 26.280372,3 c 0,1.2452387 -0.07035,2.6075896 -0.09287,3.9244114 0.421741,1.5253785 -1.5989,0.6139414 -2.463105,0.9581614 C 18.300567,8.2763539 12.921774,10.801859 9.7088359,15.287223 4.7842637,21.689265 4.5785624,31.18939 9.1541174,37.831179 12.644068,42.987309 18.785419,46.588849 25.125,46"
       id="path2431"
       style="opacity:0.4;fill:none;stroke:url(#linearGradient2436);stroke-width:1.00474763;stroke-linecap:butt;stroke-linejoin:miter;stroke-miterlimit:4;stroke-opacity:1;stroke-dasharray:none" />
    <path
       d="m 26.848056,45.838626 c 5.342419,0.332363 16.919536,-5.279208 17.647182,-17.369984 l -5.534019,-1.805866 c 0,7.129818 -7.161651,11.970473 -13.37412,12.102346"
       id="path2557"
       style="fill:none;stroke:url(#linearGradient2417);stroke-width:1.00474763;stroke-linecap:butt;stroke-linejoin:round;stroke-miterlimit:4;stroke-opacity:1;stroke-dasharray:none" />
    <rect
       width="7.4166722"
       height="5.662292"
       x="21.70804"
       y="39.289722"
       id="rect3290"
       style="fill:#9c83d5;fill-opacity:1;stroke:none" />
    <path
       d="m 13.751634,13.915468 a 1.1787115,1.1787115 0 1 1 -2.357423,0 1.1787115,1.1787115 0 1 1 2.357423,0 z"
       transform="matrix(1.9998021,0,0,1.9998021,0.07798297,-0.1835916)"
       id="path3347"
       style="fill:#a58ed9;fill-opacity:1;stroke:#7653c6;stroke-width:0.50004947;stroke-linecap:round;stroke-linejoin:round;stroke-miterlimit:4;stroke-opacity:1;stroke-dasharray:none;stroke-dashoffset:0" />
  </g>
</svg>

<?xml version="1.0" encoding="UTF-8" standalone="no"?>
<!-- Created with Inkscape (http://www.inkscape.org/) -->
<svg
   xmlns:dc="http://purl.org/dc/elements/1.1/"
   xmlns:cc="http://creativecommons.org/ns#"
   xmlns:rdf="http://www.w3.org/1999/02/22-rdf-syntax-ns#"
   xmlns:svg="http://www.w3.org/2000/svg"
   xmlns="http://www.w3.org/2000/svg"
   xmlns:xlink="http://www.w3.org/1999/xlink"
   xmlns:sodipodi="http://sodipodi.sourceforge.net/DTD/sodipodi-0.dtd"
   xmlns:inkscape="http://www.inkscape.org/namespaces/inkscape"
   width="48"
   height="48"
   id="svg3349"
   sodipodi:version="0.32"
   inkscape:version="0.46"
   version="1.0"
   sodipodi:docname="rotate.svg"
   inkscape:output_extension="org.inkscape.output.svg.inkscape">
  <defs
     id="defs3351">
    <linearGradient
       inkscape:collect="always"
       id="linearGradient8838">
      <stop
         style="stop-color:#000000;stop-opacity:1;"
         offset="0"
         id="stop8840" />
      <stop
         style="stop-color:#000000;stop-opacity:0;"
         offset="1"
         id="stop8842" />
    </linearGradient>
    <linearGradient
       id="linearGradient3533">
      <stop
         id="stop3535"
         style="stop-color:#c1b0e6;stop-opacity:1;"
         offset="0" />
      <stop
         id="stop3545"
         style="stop-color:#9c83d5;stop-opacity:1;"
         offset="1" />
    </linearGradient>
    <linearGradient
       id="linearGradient3266">
      <stop
         style="stop-color:#7653c6;stop-opacity:1;"
         offset="0"
         id="stop3268" />
      <stop
         style="stop-color:#683fc5;stop-opacity:0;"
         offset="1"
         id="stop3270" />
    </linearGradient>
    <linearGradient
       id="linearGradient3276">
      <stop
         style="stop-color:#9c83d5;stop-opacity:1;"
         offset="0"
         id="stop3278" />
      <stop
         style="stop-color:#9c83d5;stop-opacity:0;"
         offset="1"
         id="stop3280" />
    </linearGradient>
    <linearGradient
       id="linearGradient4873"
       inkscape:collect="always">
      <stop
         id="stop4875"
         offset="0"
         style="stop-color:#ffffff;stop-opacity:1;" />
      <stop
         id="stop4877"
         offset="1"
         style="stop-color:#ffffff;stop-opacity:0;" />
    </linearGradient>
    <linearGradient
       id="linearGradient3319">
      <stop
         style="stop-color:#ffffff;stop-opacity:0;"
         offset="0"
         id="stop3321" />
      <stop
         id="stop3323"
         offset="0.63129705"
         style="stop-color:#ffffff;stop-opacity:0.27472529" />
      <stop
         style="stop-color:#ffffff;stop-opacity:0;"
         offset="1"
         id="stop3325" />
    </linearGradient>
    <radialGradient
       inkscape:collect="always"
       xlink:href="#linearGradient8838"
       id="radialGradient3400"
       gradientUnits="userSpaceOnUse"
       gradientTransform="matrix(1,0,0,0.341176,0,3.047059)"
       cx="62.625"
       cy="4.625"
       fx="62.625"
       fy="4.625"
       r="10.625" />
    <linearGradient
       inkscape:collect="always"
       xlink:href="#linearGradient3533"
       id="linearGradient3402"
       gradientUnits="userSpaceOnUse"
       gradientTransform="matrix(0.3446423,-0.3446422,0.3381098,0.3381098,0.1178032,10.322607)"
       x1="20.137201"
       y1="4.4757133"
       x2="16.597107"
       y2="17.94278" />
    <linearGradient
       inkscape:collect="always"
       xlink:href="#linearGradient3276"
       id="linearGradient3404"
       gradientUnits="userSpaceOnUse"
       gradientTransform="matrix(0.5097808,3.0679686e-2,-3.0098127e-2,0.5001183,5.2256066,-3.4926097)"
       x1="31.226292"
       y1="34.600941"
       x2="34.96563"
       y2="26.842505" />
    <linearGradient
       inkscape:collect="always"
       xlink:href="#linearGradient3266"
       id="linearGradient3406"
       gradientUnits="userSpaceOnUse"
       gradientTransform="matrix(0.5097808,3.0679686e-2,-3.0098127e-2,0.5001183,5.2256066,-3.4926097)"
       x1="33.686768"
       y1="35.773647"
       x2="37.039948"
       y2="29.856804" />
    <linearGradient
       inkscape:collect="always"
       xlink:href="#linearGradient4873"
       id="linearGradient3408"
       gradientUnits="userSpaceOnUse"
       gradientTransform="matrix(0.3446423,-0.3446422,0.3381098,0.3381098,0.1178032,10.322607)"
       x1="32.325527"
       y1="5.0201149"
       x2="22.245434"
       y2="43.366352" />
    <linearGradient
       inkscape:collect="always"
       xlink:href="#linearGradient3319"
       id="linearGradient3410"
       gradientUnits="userSpaceOnUse"
       gradientTransform="matrix(0.4865175,2.9279582e-2,-2.8724737e-2,0.4772959,5.2842788,-2.0361756)"
       x1="28.116938"
       y1="41.67448"
       x2="39.686337"
       y2="28.50532" />
    <linearGradient
       inkscape:collect="always"
       xlink:href="#linearGradient3319"
       id="linearGradient2417"
       gradientUnits="userSpaceOnUse"
       gradientTransform="matrix(0.9729387,5.855337e-2,-5.7443789e-2,0.9544973,2.8218154,3.9296356)"
       x1="28.116938"
       y1="41.67448"
       x2="39.686337"
       y2="28.50532" />
    <linearGradient
       inkscape:collect="always"
       xlink:href="#linearGradient4873"
       id="linearGradient2420"
       gradientUnits="userSpaceOnUse"
       gradientTransform="matrix(0.6892164,-0.6892162,0.6761527,0.6761527,-7.5101133,28.644755)"
       x1="32.325527"
       y1="5.0201149"
       x2="22.245434"
       y2="43.366352" />
    <linearGradient
       inkscape:collect="always"
       xlink:href="#linearGradient3276"
       id="linearGradient2423"
       gradientUnits="userSpaceOnUse"
       gradientTransform="matrix(1.0194607,6.13533e-2,-6.0190298e-2,1.0001376,2.7044827,1.0170556)"
       x1="31.226292"
       y1="34.600941"
       x2="34.96563"
       y2="26.842505" />
    <linearGradient
       inkscape:collect="always"
       xlink:href="#linearGradient3266"
       id="linearGradient2425"
       gradientUnits="userSpaceOnUse"
       gradientTransform="matrix(1.0194607,6.13533e-2,-6.0190298e-2,1.0001376,2.7044827,1.0170556)"
       x1="33.686768"
       y1="35.773647"
       x2="37.039948"
       y2="29.856804" />
    <linearGradient
       inkscape:collect="always"
       xlink:href="#linearGradient3533"
       id="linearGradient2428"
       gradientUnits="userSpaceOnUse"
       gradientTransform="matrix(0.6892164,-0.6892162,0.6761527,0.6761527,-7.5101133,28.644755)"
       x1="20.137201"
       y1="4.4757133"
       x2="16.597107"
       y2="17.94278" />
    <linearGradient
       inkscape:collect="always"
       xlink:href="#linearGradient4873"
       id="linearGradient2433"
       gradientUnits="userSpaceOnUse"
       gradientTransform="matrix(0.6892164,-0.6892162,0.6761527,0.6761527,-7.5101133,28.644755)"
       x1="32.325527"
       y1="5.0201149"
       x2="22.245434"
       y2="43.366352" />
    <linearGradient
       inkscape:collect="always"
       xlink:href="#linearGradient4873"
       id="linearGradient2436"
       gradientUnits="userSpaceOnUse"
       gradientTransform="matrix(0.6892164,-0.6892162,0.6761527,0.6761527,-7.5101133,28.644755)"
       x1="32.325527"
       y1="5.0201149"
       x2="22.245434"
       y2="43.366352" />
  </defs>
  <sodipodi:namedview
     id="base"
     pagecolor="#ffffff"
     bordercolor="#666666"
     borderopacity="1.0"
     inkscape:pageopacity="0.0"
     inkscape:pageshadow="2"
     inkscape:zoom="12.166667"
     inkscape:cx="24"
     inkscape:cy="24"
     inkscape:current-layer="layer1"
     showgrid="true"
     inkscape:grid-bbox="true"
     inkscape:document-units="px"
     inkscape:window-width="1440"
     inkscape:window-height="787"
     inkscape:window-x="0"
     inkscape:window-y="22">
    <inkscape:grid
       type="xygrid"
       id="grid3412"
       visible="true"
       enabled="true" />
  </sodipodi:namedview>
  <metadata
     id="metadata3354">
    <rdf:RDF>
      <cc:Work
         rdf:about="">
        <dc:format>image/svg+xml</dc:format>
        <dc:type
           rdf:resource="http://purl.org/dc/dcmitype/StillImage" />
      </cc:Work>
    </rdf:RDF>
  </metadata>
  <g
     id="layer1"
     inkscape:label="Layer 1"
     inkscape:groupmode="layer">
    <path
       transform="matrix(2.0703833,0,0,2.4825129,-105.79371,27.519268)"
       d="M 73.25,4.625 A 10.625,3.625 0 1 1 52,4.625 A 10.625,3.625 0 1 1 73.25,4.625 z"
       sodipodi:ry="3.625"
       sodipodi:rx="10.625"
       sodipodi:cy="4.625"
       sodipodi:cx="62.625"
       id="path8836"
       style="opacity:0.4;fill:url(#radialGradient3400);fill-opacity:1;fill-rule:evenodd;stroke:none;stroke-width:0.99999988;stroke-linecap:butt;stroke-linejoin:round;marker:none;marker-start:none;marker-mid:none;marker-end:none;stroke-miterlimit:4;stroke-dasharray:none;stroke-dashoffset:0;stroke-opacity:1;visibility:visible;display:inline;overflow:visible"
       sodipodi:type="arc" />
    <path
       id="path3372"
       style="fill:url(#linearGradient2428);fill-opacity:1;stroke:#7653c6;stroke-width:1.00474763;stroke-linecap:butt;stroke-linejoin:round;stroke-miterlimit:4;stroke-dasharray:none;stroke-opacity:1"
       d="M 24.854767,37.634209 C 22.597535,37.76593 19.137229,36.948011 17.043308,34.854092 C 13.547988,31.358772 12.72609,23.080946 17.007552,18.930439 C 18.741108,17.249907 22.857987,15.069001 25.244423,15.003265 L 25.270308,21.002672 L 37.463416,11.385055 C 37.463416,11.385055 25.270308,1.0046492 25.270308,1.0046492 L 25.242231,6.6492343 C 19.982544,6.7455016 15.000617,8.4883385 11.005583,12.398016 C 2.8784168,20.35154 2.8914643,33.189719 10.655563,41.131603 C 14.626074,45.193031 19.826947,47.12932 25.048342,46.98816"
       sodipodi:nodetypes="csscccccsss" />
    <path
       id="path3453"
       style="fill:url(#linearGradient2423);fill-opacity:1;stroke:url(#linearGradient2425);stroke-width:1.00474763;stroke-linecap:butt;stroke-linejoin:miter;stroke-miterlimit:4;stroke-dasharray:none;stroke-opacity:1"
       d="M 24.141298,46.925838 C 33.626429,47.599531 44.900032,41.00733 45.631401,28.569902 L 36.894572,29.72163 C 36.404223,34.783657 29.136928,38.353406 24.748376,37.733496"
       sodipodi:nodetypes="cccc"
       inkscape:transform-center-x="-4.7850019"
       inkscape:transform-center-y="5.6207735" />
    <path
       style="opacity:0.4;fill:none;fill-opacity:1;stroke:url(#linearGradient2436);stroke-width:1.00474763;stroke-linecap:butt;stroke-linejoin:miter;stroke-miterlimit:4;stroke-dasharray:none;stroke-opacity:1"
       d="M 25.842916,38.846711 C 24.087933,38.846711 22.094611,38.942696 20.421701,37.948811 C 17.458826,36.978467 15.002942,34.689453 13.943354,31.74291 C 12.176951,27.163831 12.800931,21.298989 16.514393,17.844627 C 19.097875,15.393888 22.699648,14.396766 26.1875,14.28125 C 26.262405,15.359791 26.352402,17.398878 26.352402,18.844462 C 30.227627,15.775355 33.399349,13.313425 35.835616,11.31199 C 32.868881,9 28.989698,5.5620062 26.280372,3 C 26.280372,4.2452387 26.21002,5.6075896 26.1875,6.9244114 C 26.609241,8.4497899 24.5886,7.5383528 23.724395,7.8825728 C 18.300567,8.2763539 12.921774,10.801859 9.7088359,15.287223 C 4.7842637,21.689265 4.5785624,31.18939 9.1541174,37.831179 C 12.644068,42.987309 18.785419,46.588849 25.125,46"
       id="path2431"
       sodipodi:nodetypes="ccccccccccccc" />
    <path
       id="path2557"
       style="fill:none;fill-opacity:1;stroke:url(#linearGradient2417);stroke-width:1.00474763;stroke-linecap:butt;stroke-linejoin:round;stroke-miterlimit:4;stroke-dasharray:none;stroke-opacity:1"
       d="M 26.848056,45.838626 C 32.190475,46.170989 43.767592,40.559418 44.495238,28.468642 L 38.961219,26.662776 C 38.961219,33.792594 31.799568,38.633249 25.587099,38.765122"
       sodipodi:nodetypes="cccc"
       inkscape:transform-center-x="-4.2756621"
       inkscape:transform-center-y="5.3090346" />
    <rect
       style="fill:#9c83d5;fill-opacity:1;stroke:none;stroke-width:1;stroke-linecap:butt;stroke-linejoin:miter;stroke-miterlimit:4;stroke-dasharray:none;stroke-dashoffset:0;stroke-opacity:1"
       id="rect3290"
       width="7.4166722"
       height="5.662292"
       x="21.70804"
       y="39.289722" />
    <path
       sodipodi:type="arc"
       style="fill:#a58ed9;fill-opacity:1;stroke:#7653c6;stroke-width:0.50004947;stroke-linecap:round;stroke-linejoin:round;stroke-miterlimit:4;stroke-dasharray:none;stroke-dashoffset:0;stroke-opacity:1"
       id="path3347"
       sodipodi:cx="12.572923"
       sodipodi:cy="13.915468"
       sodipodi:rx="1.1787115"
       sodipodi:ry="1.1787115"
       d="M 13.751634,13.915468 A 1.1787115,1.1787115 0 1 1 11.394211,13.915468 A 1.1787115,1.1787115 0 1 1 13.751634,13.915468 z"
       transform="matrix(1.9998021,0,0,1.9998021,7.798297e-2,-0.1835916)" />
  </g>
</svg>
